!!!OTL: 216. Bulgar
!!!Genre:	Bulgar
!!!Mode:	Major
!!!Listening/dance:	dance
!!!:	*g:dor
!!!One_Mode:	no
**kern
*I"P1
*clefG2
*k[f#]
*G:
*M2/4
*>A
!LO:TX:a:i:t=G-major
=1
4.b
8cc
=2
4.cc
8b
=3
(8bL
8aJ)
(8qb/
8a)
8gJ
=4
2dd
=5
(4.b
8dd)
=6
4.cc
8b
=7
(8bL
8a)
((8qb/
8a)
8gJ)
=8
2g
=9:|!|:
*>B
*k[b-]
*>bM
*g:dor
8ddL
8eeJ
4ff
=10
4ee
4dd
=11
8cc#XL
8ddJ
4ee
=12
4dd
4cc#X
=13
8cc#XL
8b-
8a
8gJ
*>bM1
=14
8cc#XL
8b-
8a
8gJ
=15
2dd
=16
2gg
*>bM2
=17:|!
8cc#L
8b-
8a
8b-J
=18
2g
=19
2gg
*>eM
==
*-
